img/review-quotes.svg

<svg width="56" height="45" viewBox="0 0 56 45" fill="none" xmlns="http://www.w3.org/2000/svg">
<path opacity="0.2" d="M2.7541 20.2041H14.5049V24.7959C14.5049 32.1429 12.8525 35.8163 2.7541 35.8163H0V45H3.67213C19.2787 45 24.7869 38.5714 24.7869 23.8775V0H2.7541V20.2041ZM33.9672 0V20.2041H45.718V24.7959C45.718 32.1429 44.0656 35.8163 33.9672 35.8163H31.2131V45H34.8852C50.4918 45 56 38.5714 56 23.8775V0H33.9672Z" fill="#8EB391"/>
</svg>

<svg width="56" height="45" fill="none" xmlns="http://www.w3.org/2000/svg"><path opacity=".2" d="M2.754 20.204h11.75v4.592c0 7.347-1.652 11.02-11.75 11.02H0V45h3.672c15.607 0 21.115-6.429 21.115-21.122V0H2.754v20.204ZM33.967 0v20.204h11.751v4.592c0 7.347-1.652 11.02-11.75 11.02h-2.755V45h3.672C50.492 45 56 38.571 56 23.878V0H33.967Z" fill="#8EB391"/></svg>
